X:1
T:Frykman, 85.85.87
T:Walter Cecil Macfarren (1826-1905)
T:Frykman, 85.85.87
T:Public Domain
C:Walter Cecil Macfarren (1826-1905)
Z:Public Domain
%%score ( 1 2 ) ( 3 4 )
L:1/8
M:4/4
K:F
V:1 treble 
V:2 treble 
V:3 bass 
V:4 bass 
V:1
 [Ac]3 [Ac] [Gc]2 [FB]2 | [FB]2 [FA]2 [DA]2 [EG]2 | F3 F [FG]2 [FA]2 | [FB]8 | %4
 [Fd]3 [Gd] [Fd]2 [Fc]2 | [Fc]2 [GB]2 [GA]2 [DF]2 | [DA]3 [DG] [DG]2 [B,D]2 | [CE]8 | %8
 [A,F]3 F [FG]2 [EG]2 | [FA]3 A [A=B]2 [^GB]2 | [Ac]2 [Ad]2 (cB)(AG) | [CF]4 [CE]4 | [CF]8 |] %13
V:2
 x8 | x8 | F3 F x4 | x8 | x8 | x8 | x8 | x8 | x3 F x4 | x3 A x4 | x4 G2 D2 | x8 | x8 |] %13
V:3
 [F,F]3 [F,F] [F,E]2 [F,D]2 | [F,C]2 (A,,B,,) [C,C]2 [C,B,]2 | [D,A,]3 [D,A,] [D,B,]2 [C,C]2 | %3
 [B,,D]8 | [B,D]3 [B,E] [A,F]2 [A,F]2 | [G,D]2 [C,E]2 [D,E]2 [D,D]2 | %6
 [B,,D]3 [B,,G,] [B,,G,]2 [G,,G,]2 | [C,G,]8 | [D,F,]3 [D,A,] [C,C]2 [C,C]2 | %9
 [F,C]3 [F,C] [E,E]2 [E,E]2 | [A,E]2 [^F,D]2 (_ED)(CB,) | [C,A,]4 [C,B,]4 | [F,,A,]8 |] %13
V:4
 x8 | x2 C2 x4 | x8 | x8 | x8 | x8 | x8 | x8 | x8 | x8 | x4 G,2 B,,2 | x8 | x8 |] %13

